X: 1
T: Paddy's Rambles Through The Park
M: 3/4
L: 1/8
R: waltz
K: Ador
A/4G/4F/4G/4|E A A|G B B/2A/2|B<G G|
G2 A/2G/2| E A  A /2 B/2| c2 B/2A/2| ^G<EE|E 2||
^c/2d/2| e e/2d/2 ^c/2<e |d d/2 ^c/2B/2d/2 |^Cc/2B/2 A/2c/2|
B2 E/2F/2|G B e/2^c/2|d>e f/2^d/2|e E ^g|A2||
